assets/icons/uE03F-stop-watch.svg

<svg xmlns="http://www.w3.org/2000/svg" width="896" height="1232" viewBox="0 0 896 1232"><path d="M462 560q0-46-42-64V364q0-11-8.5-19.5T392 336q-12 0-20 8.5t-8 19.5v132q-25 11-36 36H224q-12 0-20 8.5t-8 19.5q0 12 8 20t20 8h104q18 42 64 42 29 0 49.5-20.5T462 560zm418-309q16 16 16 39 0 22-16 40l-60 59q-17 17-39 17-18 0-35-12 38 79 38 166 0 162-115 277T392 952 115 837 0 560t115-277 277-115q87 0 166 38-13-16-11.5-37.5T563 132l59-60q18-16 40-16 21 0 39 16zm-99 99l59-60-178-178-60 59 70 70-63 63q-94-80-217-80-140 0-238 98T56 560t98 238 238 98 238-98 98-238q0-123-80-217l63-63zm-389-77q118 0 202.5 84.5T679 560q0 119-84 203t-203 84-203-84-84-203 84-203 203-84zm0 546q107 0 183-76t76-183-76-183-183-76-183 76-76 183 76 183 183 76z"/></svg>

<?xml version="1.0" encoding="UTF-8" standalone="no"?><svg   xmlns:svg="http://www.w3.org/2000/svg"   xmlns="http://www.w3.org/2000/svg"   version="1.1"   width="896"   height="1232"   viewBox="0 0 896 1232">  <path     d="M462 560Q462 514 420 496V364Q420 353 411.5 344.5T392 336Q380 336 372 344.5T364 364V496Q339 507 328 532H224Q212 532 204 540.5T196 560Q196 572 204 580T224 588H328Q346 630 392 630Q421 630 441.5 609.5T462 560zM880 251Q896 267 896 290Q896 312 880 330L820 389Q803 406 781 406Q763 406 746 394Q784 473 784 560Q784 722 669 837T392 952T115 837T0 560T115 283T392 168Q479 168 558 206Q545 190 546.5 168.5T563 132L622 72Q640 56 662 56Q683 56 701 72zM781 350L840 290L662 112L602 171L672 241V241L609 304Q515 224 392 224Q252 224 154 322T56 560T154 798T392 896T630 798T728 560Q728 437 648 343L711 280zM392 273Q510 273 594.5 357.5T679 560Q679 679 595 763T392 847T189 763T105 560T189 357T392 273zM392 819Q499 819 575 743T651 560T575 377T392 301T209 377T133 560T209 743T392 819z"     id="icon23" /></svg>
